src/assets/icons/muscles_parts/back_middle.svg

<svg id="Layer_2" enable-background="new 0 0 512 512" viewBox="0 0 512 512" xmlns="http://www.w3.org/2000/svg"><g><g><path d="m255.303 507.294c-53.055 0-113.206-35.77-115.74-37.292-1.165-.699-1.895-1.942-1.938-3.301l-1.393-43.587c-.008-.259.009-.519.051-.773l8.338-50.958c2.197-13.428-1.43-26.998-9.953-37.231-5.459-6.556-8.987-12.426-11.137-16.614l-18.653 24.102c.594 7.312 1.471 36.451-17.722 69.353-.614 1.053-1.674 1.768-2.88 1.942-1.206.181-2.425-.208-3.313-1.042l-54.463-51.153c-.805-.757-1.262-1.812-1.262-2.916v-40.857c0-.048.001-.095.002-.143 1.795-50.276 28.202-74.486 36.112-80.635-1.533-9.755-5.848-45.496 6.415-80.234 12.891-36.517 57.437-52.173 62.787-53.936l71.667-42.661 6.782-44.589c.255-1.675 1.537-3.008 3.201-3.327l22.57-4.328c13.614-2.609 27.427-2.655 41.056-.133l24.079 4.456c1.675.311 2.97 1.647 3.227 3.332l6.782 44.589 71.667 42.661c5.35 1.763 49.896 17.419 62.787 53.936 12.373 35.051 6.542 69.822 4.644 78.962 7.204 7.363 34.529 38.553 36.35 89.554.001.047.002.095.002.143v33.211c0 1.085-.44 2.123-1.22 2.876l-52.929 51.152c-.883.854-2.107 1.25-3.327 1.087-1.217-.169-2.289-.887-2.908-1.947-19.193-32.901-18.316-62.04-17.722-69.353l-18.653-24.102c-2.15 4.188-5.678 10.059-11.137 16.614-8.522 10.233-12.15 23.804-9.953 37.23l8.339 50.959c.042.255.059.515.051.773l-1.394 43.587c-.044 1.373-.79 2.628-1.976 3.323-2.597 1.522-64.205 37.27-117.236 37.27z" fill="#484f69"/></g><g><path d="m250.944 26.421v40.573c0 11.104-4.525 21.699-12.471 29.202l-6.777 6.398 7.004 5.929c7.752 6.562 12.244 16.354 12.244 26.69v168.175c0 3.098-3.995 4.176-5.469 1.476l-53.144-77.005c-1.911-3.499-2.69-7.526-2.253-11.515 2.17-19.774 3.316-83.149-42.294-101.898-4.63-1.903-4.992-8.496-.563-10.854l59.534-31.704 34.672-48.678c3.012-4.229 9.517-2.034 9.517 3.211z" fill="#9fabce"/></g><g><path d="m114.747 114.779c6.027-2.874 12.982-3.088 19.236-.746 10.423 3.903 26.356 10.267 34.07 26.796 5.011 10.738-48.043 6.593-53.194 46.803-.703 5.487-3.54 10.492-7.894 13.904-3.472 2.721-4.255 2.722-27.78 23.883-3.378 3.039-8.786 1.387-9.859-3.029-5.539-22.785-12.628-79.931 45.421-107.611z" fill="#9fabce"/></g><path d="m120.482 198.948c-.044-17.535 10.978-33.187 27.502-39.054l19.393-6.886c4.644-2.211 9.247 1.088 10.362 6.109 3.087 13.9 6.93 31.297 3.483 58.609-.469 3.714-3.018 6.843-6.564 8.045l-45.876 15.542c-4.232 1.434-8.585-1.819-8.406-6.284.149-3.725.146-20.475.106-36.081z" fill="#FF4858"/><path d="m131.147 246.451c-4.748 1.043-8.065 5.325-7.979 10.186.19 10.723 1.34 29.321 6.515 44.641 11.65 34.484 38.777 59.506 41.401 85.549.162 1.606 2.013 2.425 3.328 1.488l59.628-67.301c4.358-3.105 5.61-9.032 2.88-13.634l-49.51-70.957c-2.853-3.676-7.737-5.103-12.118-3.535-10.47 3.75-30.038 10.465-44.145 13.563z" fill="#FF4858"/><g><path d="m87.835 233.651c-5.229 11.56-12.506 29.993-14.433 46.643-.855 7.391-3.67 14.42-8.408 20.156-2.914 3.527-5.86 8.533-7.432 15.346-2.143 9.287-8.72 17.768-14.045 23.396-3.105 3.282-8.639 1.423-9.137-3.067-2.361-21.294-1.819-71.847 48.037-106.97 3.026-2.132 6.943 1.123 5.418 4.496z" fill="#9fabce"/></g><g><path d="m110.067 212.481c1.953-2.366 5.8-.806 5.555 2.252-1.183 14.768-2.758 43.298.873 60.546 4.187 19.889-21.446 55.068-40.784 69.046-3.613 2.612-8.409-1.107-6.816-5.272l5.66-14.799c4.268-11.161 6.601-22.989 6.672-34.938.101-17.255 4.463-47.31 28.84-76.835z" fill="#9fabce"/></g><g><path d="m250.944 326.56v159.099c0 4.211-4.761 6.518-7.908 3.832l-17.475-14.912c-10.574-9.023-23.873-13.961-37.601-13.961-6.023 0-11.003-4.836-11.359-11.032l-2.501-43.492c-.297-5.161 2-10.117 6.082-13.123l63.126-70.459c3.196-2.354 7.636 0 7.636 4.048z" fill="#9fabce"/></g><g><path d="m155.291 364.861s11.093 45.266 15.087 88.54c.308 3.334-2.865 6.013-6.203 6.285l-8.569.861c-3.57.291-6.749-2.251-7.25-5.797l-1.822-12.884c-1.613-11.401-1.074-23.003 1.588-34.205z" fill="#9fabce"/></g><g><path d="m259.397 26.421v40.573c0 11.104 4.525 21.699 12.471 29.202l6.777 6.398-7.004 5.929c-7.752 6.562-12.244 16.354-12.244 26.69v168.175c0 3.098 3.995 4.176 5.469 1.476l53.144-77.005c1.911-3.499 2.69-7.526 2.253-11.515-2.17-19.774-3.316-83.149 42.294-101.898 4.63-1.903 4.992-8.496.564-10.854l-59.534-31.704-34.672-48.678c-3.012-4.229-9.518-2.034-9.518 3.211z" fill="#9fabce"/></g><g><path d="m395.595 114.779c-6.027-2.874-12.982-3.088-19.236-.746-10.423 3.903-26.356 10.267-34.07 26.796-5.001 10.716 49.38 7.184 53.425 46.654.575 5.606 3.404 10.745 7.853 14.203 3.317 2.578 4.502 2.967 27.589 23.733 3.378 3.039 8.786 1.387 9.859-3.029 5.539-22.785 12.628-79.931-45.42-107.611z" fill="#9fabce"/></g><path d="m389.859 198.948c.044-17.535-10.978-33.187-27.502-39.054l-19.393-6.886c-4.643-2.211-9.247 1.088-10.362 6.109-3.086 13.9-6.93 31.297-3.483 58.609.469 3.714 3.018 6.843 6.564 8.045l45.876 15.542c4.232 1.434 8.585-1.819 8.406-6.284-.149-3.725-.145-20.475-.106-36.081z" fill="#FF4858"/><path d="m379.194 246.451c4.748 1.043 8.065 5.325 7.979 10.186-.19 10.723-1.34 29.321-6.515 44.641-11.65 34.484-38.777 59.506-41.401 85.549-.162 1.606-2.013 2.425-3.328 1.488l-59.629-66.301c-4.358-3.105-5.61-9.032-2.88-13.634l49.51-71.957c2.853-3.676 7.737-5.103 12.118-3.535 10.471 3.75 30.04 10.465 44.146 13.563z" fill="#FF4858"/><g><path d="m422.507 233.651c5.229 11.56 12.506 29.993 14.433 46.643.855 7.391 3.67 14.42 8.408 20.156 2.914 3.527 5.86 8.533 7.432 15.346 2.143 9.287 8.72 17.768 14.045 23.396 3.105 3.282 8.639 1.423 9.137-3.067 2.361-21.294 1.819-71.847-48.037-106.97-3.027-2.132-6.944 1.123-5.418 4.496z" fill="#9fabce"/></g><g><path d="m400.274 212.481c-1.953-2.366-5.8-.806-5.555 2.252 1.183 14.768 2.758 43.298-.873 60.546-4.187 19.889 21.446 55.068 40.784 69.046 3.613 2.612 8.409-1.107 6.816-5.272l-5.66-14.799c-4.268-11.161-6.601-22.989-6.672-34.938-.101-17.255-4.463-47.31-28.84-76.835z" fill="#9fabce"/></g><g><path d="m259.397 326.56v159.099c0 4.211 4.761 6.518 7.908 3.832l17.475-14.912c10.574-9.023 23.873-13.961 37.602-13.961 6.023 0 11.003-4.836 11.359-11.032l2.501-43.492c.297-5.161-2-10.117-6.082-13.123l-63.126-70.459c-3.196-2.354-7.637 0-7.637 4.048z" fill="#9fabce"/></g><g><path d="m355.05 364.861s-11.093 45.266-15.087 88.54c-.308 3.334 2.865 6.013 6.203 6.285l8.569.861c3.57.291 6.749-2.251 7.25-5.797l1.822-12.884c1.613-11.401 1.074-23.003-1.588-34.205z" fill="#9fabce"/></g></g></svg>

<svg viewBox="0 0 512 512" fill="none" xmlns="http://www.w3.org/2000/svg">
<path d="M255.303 507.294C202.248 507.294 142.097 471.524 139.563 470.002C138.398 469.303 137.668 468.06 137.625 466.701L136.232 423.114C136.224 422.855 136.241 422.595 136.283 422.341L144.621 371.383C146.818 357.955 143.191 344.385 134.668 334.152C129.209 327.596 125.681 321.726 123.531 317.538L104.878 341.64C105.472 348.952 106.349 378.091 87.156 410.993C86.542 412.046 85.482 412.761 84.276 412.935C83.07 413.116 81.851 412.727 80.963 411.893L26.5 360.74C25.695 359.983 25.238 358.928 25.238 357.824V316.967C25.238 316.919 25.239 316.872 25.24 316.824C27.035 266.548 53.442 242.338 61.352 236.189C59.819 226.434 55.504 190.693 67.767 155.955C80.658 119.438 125.204 103.782 130.554 102.019L202.221 59.358L209.003 14.769C209.258 13.094 210.54 11.761 212.204 11.442L234.774 7.11401C248.388 4.50501 262.201 4.45901 275.83 6.98101L299.909 11.437C301.584 11.748 302.879 13.084 303.136 14.769L309.918 59.358L381.585 102.019C386.935 103.782 431.481 119.438 444.372 155.955C456.745 191.006 450.914 225.777 449.016 234.917C456.22 242.28 483.545 273.47 485.366 324.471C485.367 324.518 485.368 324.566 485.368 324.614V357.825C485.368 358.91 484.928 359.948 484.148 360.701L431.219 411.853C430.336 412.707 429.112 413.103 427.892 412.94C426.675 412.771 425.603 412.053 424.984 410.993C405.791 378.092 406.668 348.953 407.262 341.64L388.609 317.538C386.459 321.726 382.931 327.597 377.472 334.152C368.95 344.385 365.322 357.956 367.519 371.382L375.858 422.341C375.9 422.596 375.917 422.856 375.909 423.114L374.515 466.701C374.471 468.074 373.725 469.329 372.539 470.024C369.942 471.546 308.334 507.294 255.303 507.294Z" fill="#484F69"/>
<path d="M250.944 26.421V66.994C250.944 78.098 246.419 88.693 238.473 96.196L231.696 102.594L238.7 108.523C246.452 115.085 250.944 124.877 250.944 135.213V303.388C250.944 306.486 246.949 307.564 245.475 304.864L192.331 227.859C190.42 224.36 189.641 220.333 190.078 216.344C192.248 196.57 193.394 133.195 147.784 114.446C143.154 112.543 142.792 105.95 147.221 103.592L206.755 71.888L241.427 23.21C244.439 18.981 250.944 21.176 250.944 26.421Z" fill="#9FABCE"/>
<path d="M114.747 114.779C120.774 111.905 127.729 111.691 133.983 114.033C144.406 117.936 160.339 124.3 168.053 140.829C173.064 151.567 120.01 147.422 114.859 187.632C114.156 193.119 111.319 198.124 106.965 201.536C103.493 204.257 102.71 204.258 79.185 225.419C75.807 228.458 70.399 226.806 69.326 222.39C63.787 199.605 56.698 142.459 114.747 114.779Z" fill="#9FABCE"/>
<path d="M120.482 198.948C120.438 181.413 131.46 165.761 147.984 159.894L167.377 153.008C172.021 150.797 176.624 154.096 177.739 159.117C180.826 173.017 184.669 190.414 181.222 217.726C180.753 221.44 178.204 224.569 174.658 225.771L128.782 241.313C124.55 242.747 120.197 239.494 120.376 235.029C120.525 231.304 120.522 214.554 120.482 198.948Z" fill="#FF4858"/>
<path d="M131.147 246.451C126.399 247.494 123.082 251.776 123.168 256.637C123.358 267.36 124.508 285.958 129.683 301.278C141.333 335.762 168.46 360.784 171.084 386.827C171.246 388.433 173.097 389.252 174.412 388.315L234.04 321.014C238.398 317.909 239.65 311.982 236.92 307.38L187.41 236.423C184.557 232.747 179.673 231.32 175.292 232.888C164.822 236.638 145.254 243.353 131.147 246.451Z" fill="#FF4858"/>
<path d="M87.835 233.651C82.606 245.211 75.329 263.644 73.402 280.294C72.547 287.685 69.732 294.714 64.994 300.45C62.08 303.977 59.134 308.983 57.562 315.796C55.419 325.083 48.842 333.564 43.517 339.192C40.412 342.474 34.878 340.615 34.38 336.125C32.019 314.831 32.561 264.278 82.417 229.155C85.443 227.023 89.36 230.278 87.835 233.651Z" fill="#9FABCE"/>
<path d="M110.067 212.481C112.02 210.115 115.867 211.675 115.622 214.733C114.439 229.501 112.864 258.031 116.495 275.279C120.682 295.168 95.049 330.347 75.711 344.325C72.098 346.937 67.302 343.218 68.895 339.053L74.555 324.254C78.823 313.093 81.156 301.265 81.227 289.316C81.328 272.061 85.69 242.006 110.067 212.481Z" fill="#9FABCE"/>
<path d="M250.944 326.56V485.659C250.944 489.87 246.183 492.177 243.036 489.491L225.561 474.579C214.987 465.556 201.688 460.618 187.96 460.618C181.937 460.618 176.957 455.782 176.601 449.586L174.1 406.094C173.803 400.933 176.1 395.977 180.182 392.971L243.308 322.512C246.504 320.158 250.944 322.512 250.944 326.56Z" fill="#9FABCE"/>
<path d="M155.291 364.861C155.291 364.861 166.384 410.127 170.378 453.401C170.686 456.735 167.513 459.414 164.175 459.686L155.606 460.547C152.036 460.838 148.857 458.296 148.356 454.75L146.534 441.866C144.921 430.465 145.46 418.863 148.122 407.661L155.291 364.861Z" fill="#9FABCE"/>
<path d="M259.397 26.421V66.994C259.397 78.098 263.922 88.693 271.868 96.196L278.645 102.594L271.641 108.523C263.889 115.085 259.397 124.877 259.397 135.213V303.388C259.397 306.486 263.392 307.564 264.866 304.864L318.01 227.859C319.921 224.36 320.7 220.333 320.263 216.344C318.093 196.57 316.947 133.195 362.557 114.446C367.187 112.543 367.549 105.95 363.121 103.592L303.587 71.888L268.915 23.21C265.903 18.981 259.397 21.176 259.397 26.421Z" fill="#9FABCE"/>
<path d="M395.595 114.779C389.568 111.905 382.613 111.691 376.359 114.033C365.936 117.936 350.003 124.3 342.289 140.829C337.288 151.545 391.669 148.013 395.714 187.483C396.289 193.089 399.118 198.228 403.567 201.686C406.884 204.264 408.069 204.653 431.156 225.419C434.534 228.458 439.942 226.806 441.015 222.39C446.554 199.605 453.643 142.459 395.595 114.779Z" fill="#9FABCE"/>
<path d="M389.859 198.948C389.903 181.413 378.881 165.761 362.357 159.894L342.964 153.008C338.321 150.797 333.717 154.096 332.602 159.117C329.516 173.017 325.672 190.414 329.119 217.726C329.588 221.44 332.137 224.569 335.683 225.771L381.559 241.313C385.791 242.747 390.144 239.494 389.965 235.029C389.816 231.304 389.82 214.554 389.859 198.948Z" fill="#FF4858"/>
<path d="M379.194 246.451C383.942 247.494 387.259 251.776 387.173 256.637C386.983 267.36 385.833 285.958 380.658 301.278C369.008 335.762 341.881 360.784 339.257 386.827C339.095 388.433 337.244 389.252 335.929 388.315L276.3 322.014C271.942 318.909 270.69 312.982 273.42 308.38L322.93 236.423C325.783 232.747 330.667 231.32 335.048 232.888C345.519 236.638 365.088 243.353 379.194 246.451Z" fill="#FF4858"/>
<path d="M422.507 233.651C427.736 245.211 435.013 263.644 436.94 280.294C437.795 287.685 440.61 294.714 445.348 300.45C448.262 303.977 451.208 308.983 452.78 315.796C454.923 325.083 461.5 333.564 466.825 339.192C469.93 342.474 475.464 340.615 475.962 336.125C478.323 314.831 477.781 264.278 427.925 229.155C424.898 227.023 420.981 230.278 422.507 233.651Z" fill="#9FABCE"/>
<path d="M400.274 212.481C398.321 210.115 394.474 211.675 394.719 214.733C395.902 229.501 397.477 258.031 393.846 275.279C389.659 295.168 415.292 330.347 434.63 344.325C438.243 346.937 443.039 343.218 441.446 339.053L435.786 324.254C431.518 313.093 429.185 301.265 429.114 289.316C429.013 272.061 424.651 242.006 400.274 212.481Z" fill="#9FABCE"/>
<path d="M259.397 326.56V485.659C259.397 489.87 264.158 492.177 267.305 489.491L284.78 474.579C295.354 465.556 308.653 460.618 322.382 460.618C328.405 460.618 333.385 455.782 333.741 449.586L336.242 406.094C336.539 400.933 334.242 395.977 330.16 392.971L267.034 322.512C263.838 320.158 259.397 322.512 259.397 326.56Z" fill="#9FABCE"/>
<path d="M355.05 364.861C355.05 364.861 343.957 410.127 339.963 453.401C339.655 456.735 342.828 459.414 346.166 459.686L354.735 460.547C358.305 460.838 361.484 458.296 361.985 454.75L363.807 441.866C365.42 430.465 364.881 418.863 362.219 407.661L355.05 364.861Z" fill="#9FABCE"/>
</svg>
